X:1
T:Title
%%score 1 { 2 | 3 }
L:1/8
Q:1/4=90
M:4/4
K:G
V:1 treble nm="Grand Piano, Soprano"
V:2 bass nm="Choir Pad, Kuala Lumpur, Allen"
V:3 bass 
V:1
 [B,G]2 [DG][DA] [DB][CA][B,G][DF] | [DF]2 [CE]2 [B,D]4 | [DF]2 [DF][DG] [DA][DF][DG][DA] | %3
w: By~T.~Frank~Allen,~1884 * * * * * *|||
 [DB]2 [GB]2 [FA]4 | [GB]2 [GB][Fc] [Gd][Fc] [GB]2 | [GB]2 [GB][FA] [EG][^DF] E2 | %6
w: |||
 [Ec]2 [EB][EA] [DG][DF][DG][EA] | [DB]2 [DA]2 [DG]4- | [DG]4 z4 |] %9
w: |||
V:2
 G,2 G,F, G,F,G,G, | G,2 G,2 G,4 | A,2 A,B, CA,G,F, | G,2[K:treble] D2 D4 | D2 DD DD D2 | %5
 D2 DC[K:bass] B,A, G,2 | A,2 ^G,A, B,A,=G,G, | G,2 C2 B,4- | B,4 z4 |] %9
V:3
 G,,2 B,,D, z D,E,B,, | C,2 C,2 G,,4 | D,2 D,D, D,C,B,,D, | z2 B,,2 D,4 | G,2 G,A, B,A, G,2 | %5
 G,2 G,D, E,B,, B,,2 | A,,2 B,,C, D,C,B,,C, | D,2 D,2 G,,4- | G,,4 z4 |] %9

